data/icons/refresh.svg

<svg width="16" height="16" viewBox="0 0 16 16" fill="none" xmlns="http://www.w3.org/2000/svg">
    <path
        d="M12.8177 4.15769L11.9127 3.25275L14.5004 3.25L14.4994 2.25L10.2499 2.2545V6.5H11.2499V4.00413L12.1106 4.86478C12.7765 5.53078 13.2301 6.37915 13.4142 7.30279C13.5983 8.22642 13.5046 9.1839 13.145 10.0543C12.7853 10.9247 12.1758 11.6691 11.3934 12.1934C10.611 12.7176 9.69083 12.9983 8.74903 13L8.75078 14C9.89021 13.998 11.0035 13.6584 11.9501 13.0241C12.8966 12.3898 13.634 11.4893 14.0692 10.4362C14.5043 9.38312 14.6177 8.22473 14.3949 7.10728C14.1722 5.98983 13.6233 4.96343 12.8177 4.15769ZM7.25078 3.25L7.24903 2.25C6.10959 2.25203 4.99631 2.59162 4.04974 3.22591C3.10317 3.86019 2.36577 4.76073 1.93064 5.8138C1.4955 6.86688 1.38215 8.02527 1.6049 9.14272C1.82764 10.2602 2.37649 11.2866 3.18215 12.0923L4.08984 13H1.4999V14H5.7499V9.75H4.7499V12.2459L3.88925 11.3852C3.22333 10.7192 2.76968 9.87085 2.58557 8.94721C2.40147 8.02358 2.49516 7.0661 2.85483 6.19568C3.21449 5.32525 3.824 4.58091 4.60639 4.05664C5.38878 3.53237 6.30897 3.25168 7.25078 3.25Z"
        fill="#ffffff" />
</svg>

<svg xmlns="http://www.w3.org/2000/svg" width="16" height="16" fill="none" viewBox="0 0 16 16"><path fill="#fff" d="m12.818 4.158-.905-.905L14.5 3.25v-1l-4.25.005V6.5h1V4.004l.86.86A4.766 4.766 0 0 1 8.75 13l.002 1a5.765 5.765 0 0 0 4.067-9.842M7.25 3.25l-.002-1a5.766 5.766 0 0 0-4.067 9.842L4.09 13H1.5v1h4.25V9.75h-1v2.496l-.86-.86A4.766 4.766 0 0 1 7.25 3.25"/></svg>
